packages/assets/static/images/icons/pencil-ruler.svg

<svg width="24" height="24" viewBox="0 0 24 24" xmlns="http://www.w3.org/2000/svg">
<path d="M19.5 3.3751H15C14.6022 3.3751 14.2206 3.53314 13.9393 3.81444C13.658 4.09575 13.5 4.47728 13.5 4.8751V19.8751C13.5 20.2729 13.658 20.6545 13.9393 20.9358C14.2206 21.2171 14.6022 21.3751 15 21.3751H19.5C19.8978 21.3751 20.2794 21.2171 20.5607 20.9358C20.842 20.6545 21 20.2729 21 19.8751V4.8751C21 4.47728 20.842 4.09575 20.5607 3.81444C20.2794 3.53314 19.8978 3.3751 19.5 3.3751ZM19.5 19.8751H15V16.8751H17.25C17.4489 16.8751 17.6397 16.7961 17.7803 16.6554C17.921 16.5148 18 16.324 18 16.1251C18 15.9262 17.921 15.7354 17.7803 15.5948C17.6397 15.4541 17.4489 15.3751 17.25 15.3751H15V13.1251H17.25C17.4489 13.1251 17.6397 13.0461 17.7803 12.9054C17.921 12.7648 18 12.574 18 12.3751C18 12.1762 17.921 11.9854 17.7803 11.8448C17.6397 11.7041 17.4489 11.6251 17.25 11.6251H15V9.3751H17.25C17.4489 9.3751 17.6397 9.29608 17.7803 9.15543C17.921 9.01478 18 8.82401 18 8.6251C18 8.42619 17.921 8.23542 17.7803 8.09477C17.6397 7.95412 17.4489 7.8751 17.25 7.8751H15V4.8751H19.5V19.8751ZM7.28063 2.84448C7.21097 2.77474 7.12825 2.71942 7.03721 2.68168C6.94616 2.64394 6.84856 2.62451 6.75 2.62451C6.65144 2.62451 6.55384 2.64394 6.4628 2.68168C6.37175 2.71942 6.28903 2.77474 6.21938 2.84448L3.21938 5.84448C3.14975 5.91418 3.09454 5.99692 3.0569 6.08796C3.01926 6.17901 2.99992 6.27658 3 6.3751V19.8751C3 20.2729 3.15804 20.6545 3.43934 20.9358C3.72064 21.2171 4.10218 21.3751 4.5 21.3751H9C9.39782 21.3751 9.77936 21.2171 10.0607 20.9358C10.342 20.6545 10.5 20.2729 10.5 19.8751V6.3751C10.5001 6.27658 10.4807 6.17901 10.4431 6.08796C10.4055 5.99692 10.3503 5.91418 10.2806 5.84448L7.28063 2.84448ZM4.5 16.8751V7.8751H6V16.8751H4.5ZM7.5 7.8751H9V16.8751H7.5V7.8751ZM6.75 4.43541L8.68969 6.3751H4.81031L6.75 4.43541ZM4.5 19.8751V18.3751H9V19.8751H4.5Z"/>
</svg>

<svg viewBox="0 0 24 24" xmlns="http://www.w3.org/2000/svg" aria-hidden="true" fill="currentColor"><path d="M19.5 3.375H15a1.5 1.5 0 0 0-1.5 1.5v15a1.5 1.5 0 0 0 1.5 1.5h4.5a1.5 1.5 0 0 0 1.5-1.5v-15a1.5 1.5 0 0 0-1.5-1.5m0 16.5H15v-3h2.25a.75.75 0 1 0 0-1.5H15v-2.25h2.25a.75.75 0 1 0 0-1.5H15v-2.25h2.25a.75.75 0 1 0 0-1.5H15v-3h4.5zM7.28 2.845a.75.75 0 0 0-1.06 0l-3 3a.75.75 0 0 0-.22.53v13.5a1.5 1.5 0 0 0 1.5 1.5H9a1.5 1.5 0 0 0 1.5-1.5v-13.5a.75.75 0 0 0-.22-.53zM4.5 16.874v-9H6v9zm3-9H9v9H7.5zm-.75-3.44 1.94 1.94H4.81zM4.5 19.875v-1.5H9v1.5z"/></svg>
